X:69
T: Guan deng
N: C0091
O: China,Shanxi, Yanbei
S: I, 327, 1)]
N: Alterationen! 4, fa) klingt ein wenig hoeher als in der temperierten
N: Stimmung. Dies ist typisch fuer diese Region.
N: In der 4. Strophe lautet der letzte Takt: 5_5__. //
R: Xiaodiao. Yuanxiao guandeng]
M: 2/4
L: 1/16
K: G
e2eee2B2 | d2d4g2 | egedB2E2 | G2G4E2 |
G3Ad2B2 | A2BdA2G2 | A2ABA2D2 | E2E2FAFE | D2D6 |
G3Ad2B2 | A2BdA2G2 | A2ABA2D2 | E2E2FAFE | D2D6

@@@ Tune index: 6070
